media/cap-std.svg

<?xml version="1.0" encoding="UTF-8" standalone="no"?>
<svg
   xmlns:serif="http://www.serif.com/"
   xmlns:dc="http://purl.org/dc/elements/1.1/"
   xmlns:cc="http://creativecommons.org/ns#"
   xmlns:rdf="http://www.w3.org/1999/02/22-rdf-syntax-ns#"
   xmlns:svg="http://www.w3.org/2000/svg"
   xmlns="http://www.w3.org/2000/svg"
   xmlns:xlink="http://www.w3.org/1999/xlink"
   xmlns:inkscape="http://www.inkscape.org/namespaces/inkscape"
   width="100%"
   height="100%"
   viewBox="0 0 1200 800"
   version="1.1"
   xml:space="preserve"
   style="fill-rule:evenodd;clip-rule:evenodd;stroke-linejoin:round;stroke-miterlimit:1.41421;"
   id="svg78"
>
<metadata
   id="metadata82"><rdf:RDF><cc:Work
       rdf:about=""><dc:format>image/svg+xml</dc:format><dc:type
         rdf:resource="http://purl.org/dc/dcmitype/StillImage" /><dc:title /></cc:Work></rdf:RDF></metadata>
    <g
   id="Layer-1"
   serif:id="Layer 1">
        <g
   transform="matrix(1,0,0,1,597.344,637.02)"
   id="g4">
            <path
   d="M0,-279.559C-121.238,-279.559 -231.39,-264.983 -312.939,-241.23L-312.939,-38.329C-231.39,-14.575 -121.238,0 0,0C138.76,0 262.987,-19.092 346.431,-49.186L346.431,-230.37C262.987,-260.465 138.76,-279.559 0,-279.559"
   style="fill:rgb(165,43,0);fill-rule:nonzero;"
   id="path2" />
        </g>
        <g
   transform="matrix(1,0,0,1,1068.75,575.642)"
   id="g8">
            <path
   d="M0,-53.32L-14.211,-82.761C-14.138,-83.879 -14.08,-84.998 -14.08,-86.121C-14.08,-119.496 -48.786,-150.256 -107.177,-174.883L-107.177,2.643C-79.932,-8.849 -57.829,-21.674 -42.021,-35.482C-46.673,-16.775 -62.585,21.071 -75.271,47.686C-96.121,85.752 -103.671,118.889 -102.703,120.53C-102.086,121.563 -94.973,110.59 -84.484,92.809C-60.074,58.028 -13.82,-8.373 -4.575,-25.287C5.897,-44.461 0,-53.32 0,-53.32"
   style="fill:rgb(165,43,0);fill-rule:nonzero;"
   id="path6" />
        </g>
        <g
   transform="matrix(1,0,0,1,149.064,591.421)"
   id="g12">
            <path
   d="M0,-99.954C0,-93.526 1.293,-87.194 3.788,-80.985L-4.723,-65.835C-4.723,-65.835 -11.541,-56.989 0.465,-38.327C11.055,-21.872 64.1,42.54 92.097,76.271C104.123,93.564 112.276,104.216 112.99,103.187C114.114,101.554 105.514,69.087 81.631,32.046C70.487,12.151 57.177,-14.206 49.189,-33.675C71.492,-19.559 100.672,-6.755 135.341,4.265L135.341,-204.17C51.797,-177.622 0,-140.737 0,-99.954"
   style="fill:rgb(165,43,0);fill-rule:nonzero;"
   id="path10" />
        </g>
        <g
   transform="matrix(-65.8097,-752.207,-752.207,65.8097,621.707,796.312)"
   id="g16">
            <path
   d="M0.991,-0.034L0.933,0.008C0.933,0.014 0.933,0.02 0.933,0.026L0.99,0.069C0.996,0.073 0.999,0.08 0.998,0.087C0.997,0.094 0.992,0.1 0.986,0.103L0.92,0.133C0.919,0.139 0.918,0.145 0.916,0.15L0.964,0.203C0.968,0.208 0.97,0.216 0.968,0.222C0.965,0.229 0.96,0.234 0.953,0.236L0.882,0.254C0.88,0.259 0.877,0.264 0.875,0.27L0.91,0.33C0.914,0.336 0.914,0.344 0.91,0.35C0.907,0.356 0.9,0.36 0.893,0.361L0.82,0.365C0.817,0.369 0.813,0.374 0.81,0.379L0.832,0.445C0.835,0.452 0.833,0.459 0.828,0.465C0.824,0.47 0.816,0.473 0.809,0.472L0.737,0.462C0.733,0.466 0.729,0.47 0.724,0.474L0.733,0.544C0.734,0.551 0.731,0.558 0.725,0.562C0.719,0.566 0.711,0.568 0.704,0.565L0.636,0.542C0.631,0.546 0.626,0.549 0.621,0.552L0.615,0.621C0.615,0.629 0.61,0.635 0.604,0.638C0.597,0.641 0.589,0.641 0.583,0.638L0.521,0.602C0.52,0.603 0.519,0.603 0.518,0.603L0.406,0.729C0.406,0.729 0.394,0.747 0.359,0.725C0.329,0.705 0.206,0.599 0.141,0.543C0.109,0.52 0.089,0.504 0.09,0.502C0.093,0.499 0.149,0.509 0.217,0.554C0.278,0.588 0.371,0.631 0.38,0.619C0.38,0.619 0.396,0.604 0.406,0.575C0.406,0.575 0.406,0.575 0.406,0.575C0.407,0.576 0.407,0.576 0.406,0.575C0.406,0.575 0.091,0.024 0.305,-0.531C0.311,-0.593 0.275,-0.627 0.275,-0.627C0.266,-0.639 0.178,-0.598 0.12,-0.566C0.055,-0.523 0.002,-0.513 0,-0.516C-0.001,-0.518 0.018,-0.533 0.049,-0.555C0.11,-0.608 0.227,-0.707 0.256,-0.726C0.289,-0.748 0.301,-0.73 0.301,-0.73L0.402,-0.615C0.406,-0.614 0.41,-0.613 0.415,-0.613L0.47,-0.658C0.475,-0.663 0.483,-0.664 0.49,-0.662C0.497,-0.66 0.502,-0.655 0.504,-0.648L0.522,-0.58C0.527,-0.578 0.533,-0.576 0.538,-0.574L0.602,-0.608C0.608,-0.612 0.616,-0.612 0.623,-0.608C0.629,-0.605 0.633,-0.599 0.633,-0.592L0.637,-0.522C0.642,-0.519 0.647,-0.515 0.652,-0.512L0.721,-0.534C0.728,-0.536 0.736,-0.535 0.741,-0.531C0.747,-0.526 0.75,-0.519 0.749,-0.512L0.738,-0.443C0.742,-0.439 0.746,-0.435 0.751,-0.431L0.823,-0.439C0.83,-0.44 0.837,-0.437 0.842,-0.432C0.847,-0.426 0.848,-0.419 0.845,-0.412L0.821,-0.347C0.824,-0.342 0.828,-0.337 0.831,-0.332L0.903,-0.327C0.911,-0.327 0.917,-0.322 0.92,-0.316C0.924,-0.31 0.924,-0.302 0.92,-0.296L0.883,-0.236C0.885,-0.231 0.887,-0.226 0.889,-0.22L0.959,-0.202C0.966,-0.2 0.972,-0.195 0.974,-0.188C0.976,-0.181 0.974,-0.174 0.969,-0.168L0.92,-0.116C0.921,-0.111 0.923,-0.105 0.924,-0.099L0.988,-0.068C0.995,-0.065 0.999,-0.059 1,-0.052C1.001,-0.045 0.997,-0.038 0.991,-0.034ZM0.406,0.575C0.406,0.575 0.406,0.575 0.406,0.575C0.406,0.575 0.406,0.575 0.406,0.575Z"
   style="fill:url(#_Linear1);fill-rule:nonzero;"
   id="path14" />
        </g>
        <g
   transform="matrix(1,0,0,1,450.328,483.629)"
   id="g20">
            <path
   d="M0,167.33C-1.664,165.91 -2.536,165.068 -2.536,165.068L140.006,153.391C23.733,0 -69.418,122.193 -79.333,135.855L-79.333,167.33L0,167.33Z"
   style="fill-rule:nonzero;"
   id="path18" />
        </g>
        <g
   transform="matrix(1,0,0,1,747.12,477.333)"
   id="g24">
            <path
   d="M0,171.974C1.663,170.554 2.536,169.71 2.536,169.71L-134.448,159.687C-18.12,0 69.421,126.835 79.335,140.497L79.335,171.974L0,171.974Z"
   style="fill-rule:nonzero;"
   id="path22" />
        </g>
        <g
   transform="matrix(-1.53e-05,-267.211,-267.211,1.53e-05,809.465,764.23)"
   id="g28">
            <path
   d="M1,-0.586C1,-0.586 0.768,-0.528 0.524,-0.165L0.5,-0.064C0.5,-0.064 1.1,0.265 0.424,0.731C0.424,0.731 0.508,0.586 0.405,0.197C0.405,0.197 0.131,0.376 0.14,0.736C0.14,0.736 -0.275,0.391 0.324,-0.135C0.324,-0.135 0.539,-0.691 1,-0.736L1,-0.586Z"
   style="fill:url(#_Linear2);fill-rule:nonzero;"
   id="path26" />
        </g>
        <g
   transform="matrix(1,0,0,1,677.392,509.61)"
   id="g32">
            <path
   d="M0,-92.063C0,-92.063 43.486,-139.678 86.974,-92.063C86.974,-92.063 121.144,-28.571 86.974,3.171C86.974,3.171 31.062,47.615 0,3.171C0,3.171 -37.275,-31.75 0,-92.063"
   style="fill-rule:nonzero;"
   id="path30" />
        </g>
        <g
   transform="matrix(1,0,0,1,727.738,435.209)"
   id="g36">
            <path
   d="M0,0.002C0,18.543 -10.93,33.574 -24.408,33.574C-37.885,33.574 -48.814,18.543 -48.814,0.002C-48.814,-18.539 -37.885,-33.572 -24.408,-33.572C-10.93,-33.572 0,-18.539 0,0.002"
   style="fill:white;fill-rule:nonzero;"
   id="path34" />
        </g>
        <g
   transform="matrix(1,0,0,1,483.3,502.984)"
   id="g40">
            <path
   d="M0,-98.439C0,-98.439 74.596,-131.467 94.956,-57.748C94.956,-57.748 116.283,28.178 33.697,33.028C33.697,33.028 -71.613,12.745 0,-98.439"
   style="fill-rule:nonzero;"
   id="path38" />
        </g>
        <g
   transform="matrix(1,0,0,1,520.766,436.428)"
   id="g44">
            <path
   d="M0,0C0,19.119 -11.27,34.627 -25.173,34.627C-39.071,34.627 -50.344,19.119 -50.344,0C-50.344,-19.124 -39.071,-34.627 -25.173,-34.627C-11.27,-34.627 0,-19.124 0,0"
   style="fill:white;fill-rule:nonzero;"
   id="path42" />
        </g>
        <g
   transform="matrix(-1.53e-05,-239.021,-239.021,1.53e-05,402.161,775.388)"
   id="g48">
            <path
   d="M0.367,0.129C-0.364,-0.441 0.223,-0.711 0.223,-0.711C0.259,-0.391 0.472,-0.164 0.472,-0.164C0.521,-0.548 0.525,-0.77 0.525,-0.77C1.203,-0.256 0.589,0.161 0.589,0.161C0.627,0.265 0.772,0.372 0.906,0.451L1,0.77C0.376,0.403 0.367,0.129 0.367,0.129Z"
   style="fill:url(#_Linear3);fill-rule:nonzero;"
   id="path46" />
        </g>
    </g>
    <defs
   id="defs76"><linearGradient
   inkscape:collect="always"
   id="linearGradient6537"><stop
     style="stop-color:#a0bcad;stop-opacity:1;"
     offset="0"
     id="stop6533" /><stop
     style="stop-color:#fcf8fb;stop-opacity:1;"
     offset="1"
     id="stop6535" /></linearGradient><linearGradient
   inkscape:collect="always"
   id="linearGradient6515"><stop
     style="stop-color:#ac5fb3;stop-opacity:1"
     offset="0"
     id="stop6511" /><stop
     style="stop-color:#fcf8fb;stop-opacity:1"
     offset="1"
     id="stop6513" /></linearGradient>
        <linearGradient
   id="_Linear1"
   x1="0"
   y1="0"
   x2="1"
   y2="0"
   gradientUnits="userSpaceOnUse"
   gradientTransform="matrix(1,0,1.38778e-17,-1,0,-0.000650515)"><stop
     offset="0"
     style="stop-color:rgb(247,76,0);stop-opacity:1"
     id="stop51" /><stop
     offset="0.33"
     style="stop-color:rgb(247,76,0);stop-opacity:1"
     id="stop53" /><stop
     offset="1"
     style="stop-color:rgb(244,150,0);stop-opacity:1"
     id="stop55" /></linearGradient>
        <linearGradient
   id="_Linear2"
   x1="0"
   y1="0"
   x2="1"
   y2="0"
   gradientUnits="userSpaceOnUse"
   gradientTransform="matrix(1,0,0,-1,0,1.23438e-06)"><stop
     offset="0"
     style="stop-color:rgb(204,58,0);stop-opacity:1"
     id="stop58" /><stop
     offset="0.15"
     style="stop-color:rgb(204,58,0);stop-opacity:1"
     id="stop60" /><stop
     offset="0.74"
     style="stop-color:rgb(247,76,0);stop-opacity:1"
     id="stop62" /><stop
     offset="1"
     style="stop-color:rgb(247,76,0);stop-opacity:1"
     id="stop64" /></linearGradient>
        <linearGradient
   id="_Linear3"
   x1="0"
   y1="0"
   x2="1"
   y2="0"
   gradientUnits="userSpaceOnUse"
   gradientTransform="matrix(1,1.32349e-23,1.32349e-23,-1,0,-9.1568e-07)"><stop
     offset="0"
     style="stop-color:rgb(204,58,0);stop-opacity:1"
     id="stop67" /><stop
     offset="0.15"
     style="stop-color:rgb(204,58,0);stop-opacity:1"
     id="stop69" /><stop
     offset="0.74"
     style="stop-color:rgb(247,76,0);stop-opacity:1"
     id="stop71" /><stop
     offset="1"
     style="stop-color:rgb(247,76,0);stop-opacity:1"
     id="stop73" /></linearGradient>
    <linearGradient
   inkscape:collect="always"
   xlink:href="#linearGradient6515"
   id="linearGradient6517"
   x1="609.04132"
   y1="-515.00171"
   x2="7.6670575"
   y2="-337.3421"
   gradientUnits="userSpaceOnUse"
   gradientTransform="matrix(0.84090888,0,0,0.83306545,96.429888,383.46739)" /><linearGradient
   inkscape:collect="always"
   xlink:href="#linearGradient6537"
   id="linearGradient6541"
   gradientUnits="userSpaceOnUse"
   x1="645.99176"
   y1="-207.11929"
   x2="15.254237"
   y2="-71.18644"
   gradientTransform="matrix(0.84090888,0,0,0.83306545,56.522349,324.16442)" /></defs>
<path
   style="fill:none;stroke:#000000;stroke-width:58.28520966;stroke-linecap:butt;stroke-linejoin:round;stroke-miterlimit:4;stroke-dasharray:none;stroke-opacity:1"
   d="m 183.62251,152.53645 c -16.30683,-96.952372 51.54727,-188.693535 135.46687,-231.618256 116.94013,-68.481224 258.38344,-94.697384 392.51955,-74.964364 89.55716,15.18151 174.34658,63.053868 230.31711,134.202226 27.47269,42.372809 49.05655,93.198724 46.28635,144.388374"
   id="path5750"
   inkscape:connector-curvature="0" /><path
   style="fill:none;stroke:#000000;stroke-width:32.599;stroke-linecap:butt;stroke-linejoin:miter;stroke-miterlimit:4;stroke-dasharray:none;stroke-opacity:1"
   d="m 227.31405,138.25676 c 74.77092,-31.81584 156.45503,-43.809604 237.44998,-41.224444 131.01214,-1.802036 262.1874,-6.145798 393.14215,-2.139837 67.34592,5.806471 139.23122,24.854321 182.96792,79.791011 18.7912,24.97301 73.6689,58.26788 35.5839,89.78952 -43.0107,27.60483 -96.28925,4.78267 -142.96213,0.58335 -141.73289,-35.19256 -289.22737,-29.78835 -434.1037,-27.26058 -116.68139,5.66913 -232.4229,24.23289 -346.70662,46.88661 -55.603003,-4.03075 -35.51931,-70.69602 -6.19173,-94.88243 21.01051,-24.62654 49.65888,-42.47922 80.82023,-51.5432 z"
   id="path5787"
   inkscape:connector-curvature="0" /><path
   style="opacity:1;fill:url(#linearGradient6541);fill-opacity:1;stroke:none;stroke-width:1.41860664"
   d="m 146.83613,266.86593 c -35.34525,-27.41582 19.05127,-72.90044 41.92154,-91.71565 51.61044,-30.11893 111.19504,-44.88181 169.66616,-55.9618 108.05099,-8.47011 216.78763,-6.09092 325.13887,-8.25377 98.3285,1.7131 203.12514,-13.268314 294.08125,32.93304 37.83305,22.35266 65.21585,58.26606 93.48925,90.97919 -4.4388,39.15915 -63.3156,23.10691 -92.85473,20.37963 C 905.38067,242.944 833.18567,225.097 758.91102,222.66365 591.69308,214.34558 423.1606,218.62367 258.05797,248.13847 c -37.26861,4.0452 -74.13138,17.66355 -111.22184,18.72746 z"
   id="path6261"
   inkscape:connector-curvature="0" /><path
   style="fill:url(#linearGradient6517);fill-opacity:1;stroke:none;stroke-width:1.41860664"
   d="m 211.19766,119.38305 c 0,-20.868751 6.8167,-45.865697 19.2602,-70.627485 11.04121,-21.971277 23.58191,-39.06793 41.95737,-57.200149 23.58195,-23.269785 49.4467,-40.137167 99.12522,-64.643275 76.78725,-37.878691 161.90292,-57.166361 252.27267,-57.166361 82.95742,0 140.67798,13.80532 199.71179,47.766067 36.09182,20.762783 79.1704,58.19349 95.79596,83.23656254 10.55793,15.90356946 23.48024,42.48027446 29.44597,60.56063546 5.08193,15.401615 9.08957,33.986997 7.63871,35.424301 -0.42496,0.42104 -3.59857,-0.22367 -7.05243,-1.43269 C 931.57739,89.078265 898.98463,82.485019 868.24679,78.893516 837.49265,75.300113 447.20241,77.916913 392.20686,82.085247 337.69164,86.217169 284.3029,97.991358 236.13987,116.5038 c -8.62288,3.31438 -17.76242,6.70821 -20.31008,7.54184 l -4.63213,1.51569 z"
   id="path6509"
   inkscape:connector-curvature="0" /></svg>

<?xml version="1.0" encoding="UTF-8"?>
<svg id="svg78" width="1114.9" height="964.98" clip-rule="evenodd" fill-rule="evenodd" stroke-linejoin="round" stroke-miterlimit="1.4142" version="1.1" viewBox="0 0 1114.9 964.98" xml:space="preserve" xmlns="http://www.w3.org/2000/svg" xmlns:cc="http://creativecommons.org/ns#" xmlns:dc="http://purl.org/dc/elements/1.1/" xmlns:rdf="http://www.w3.org/1999/02/22-rdf-syntax-ns#" xmlns:serif="http://www.serif.com/" xmlns:xlink="http://www.w3.org/1999/xlink">
<metadata id="metadata82"><rdf:RDF><cc:Work rdf:about=""><dc:format>image/svg+xml</dc:format><dc:type rdf:resource="http://purl.org/dc/dcmitype/StillImage"/><dc:title/></cc:Work></rdf:RDF></metadata>
    <g id="Layer-1" transform="translate(-42.415 189.6)" serif:id="Layer 1">
        <g id="g4" transform="translate(597.34 637.02)">
            <path id="path2" d="m0-279.56c-121.24 0-231.39 14.576-312.94 38.329v202.9c81.549 23.754 191.7 38.329 312.94 38.329 138.76 0 262.99-19.092 346.43-49.186v-181.18c-83.444-30.095-207.67-49.189-346.43-49.189" fill="#a52b00" fill-rule="nonzero"/>
        </g>
        <g id="g8" transform="translate(1068.8 575.64)">
            <path id="path6" d="m0-53.32-14.211-29.441c0.073-1.118 0.131-2.237 0.131-3.36 0-33.375-34.706-64.135-93.097-88.762v177.53c27.245-11.492 49.348-24.317 65.156-38.125-4.652 18.707-20.564 56.553-33.25 83.168-20.85 38.066-28.4 71.203-27.432 72.844 0.617 1.033 7.73-9.94 18.219-27.721 24.41-34.781 70.664-101.18 79.909-118.1 10.472-19.174 4.575-28.033 4.575-28.033" fill="#a52b00" fill-rule="nonzero"/>
        </g>
        <g id="g12" transform="translate(149.06 591.42)">
            <path id="path10" d="m0-99.954c0 6.428 1.293 12.76 3.788 18.969l-8.511 15.15s-6.818 8.846 5.188 27.508c10.59 16.455 63.635 80.867 91.632 114.6 12.026 17.293 20.179 27.945 20.893 26.916 1.124-1.633-7.476-34.1-31.359-71.141-11.144-19.895-24.454-46.252-32.442-65.721 22.303 14.116 51.483 26.92 86.152 37.94v-208.44c-83.544 26.548-135.34 63.433-135.34 104.22" fill="#a52b00" fill-rule="nonzero"/>
        </g>
        <g id="g16" transform="matrix(-65.81 -752.21 -752.21 65.81 621.71 796.31)">
            <path id="path14" d="m0.991-0.034-0.058 0.042v0.018l0.057 0.043c6e-3 4e-3 9e-3 0.011 8e-3 0.018s-6e-3 0.013-0.012 0.016l-0.066 0.03c-1e-3 6e-3 -2e-3 0.012-4e-3 0.017l0.048 0.053c4e-3 5e-3 6e-3 0.013 4e-3 0.019-3e-3 7e-3 -8e-3 0.012-0.015 0.014l-0.071 0.018c-2e-3 5e-3 -5e-3 0.01-7e-3 0.016l0.035 0.06c4e-3 6e-3 4e-3 0.014 0 0.02-3e-3 6e-3 -0.01 0.01-0.017 0.011l-0.073 4e-3c-3e-3 4e-3 -7e-3 9e-3 -0.01 0.014l0.022 0.066c3e-3 7e-3 1e-3 0.014-4e-3 0.02-4e-3 5e-3 -0.012 8e-3 -0.019 7e-3l-0.072-0.01c-4e-3 4e-3 -8e-3 8e-3 -0.013 0.012l9e-3 0.07c1e-3 7e-3 -2e-3 0.014-8e-3 0.018s-0.014 6e-3 -0.021 3e-3l-0.068-0.023c-5e-3 4e-3 -0.01 7e-3 -0.015 0.01l-6e-3 0.069c0 8e-3 -5e-3 0.014-0.011 0.017-7e-3 3e-3 -0.015 3e-3 -0.021 0l-0.062-0.036c-1e-3 1e-3 -2e-3 1e-3 -3e-3 1e-3l-0.112 0.126s-0.012 0.018-0.047-4e-3c-0.03-0.02-0.153-0.126-0.218-0.182-0.032-0.023-0.052-0.039-0.051-0.041 3e-3 -3e-3 0.059 7e-3 0.127 0.052 0.061 0.034 0.154 0.077 0.163 0.065 0 0 0.016-0.015 0.026-0.044 1e-3 1e-3 1e-3 1e-3 0 0 0 0-0.315-0.551-0.101-1.106 6e-3 -0.062-0.03-0.096-0.03-0.096-9e-3 -0.012-0.097 0.029-0.155 0.061-0.065 0.043-0.118 0.053-0.12 0.05-1e-3 -2e-3 0.018-0.017 0.049-0.039 0.061-0.053 0.178-0.152 0.207-0.171 0.033-0.022 0.045-4e-3 0.045-4e-3l0.101 0.115c4e-3 1e-3 8e-3 2e-3 0.013 2e-3l0.055-0.045c5e-3 -5e-3 0.013-6e-3 0.02-4e-3s0.012 7e-3 0.014 0.014l0.018 0.068c5e-3 2e-3 0.011 4e-3 0.016 6e-3l0.064-0.034c6e-3 -4e-3 0.014-4e-3 0.021 0 6e-3 3e-3 0.01 9e-3 0.01 0.016l4e-3 0.07c5e-3 3e-3 0.01 7e-3 0.015 0.01l0.069-0.022c7e-3 -2e-3 0.015-1e-3 0.02 3e-3 6e-3 5e-3 9e-3 0.012 8e-3 0.019l-0.011 0.069c4e-3 4e-3 8e-3 8e-3 0.013 0.012l0.072-8e-3c7e-3 -1e-3 0.014 2e-3 0.019 7e-3 5e-3 6e-3 6e-3 0.013 3e-3 0.02l-0.024 0.065c3e-3 5e-3 7e-3 0.01 0.01 0.015l0.072 5e-3c8e-3 0 0.014 5e-3 0.017 0.011 4e-3 6e-3 4e-3 0.014 0 0.02l-0.037 0.06c2e-3 5e-3 4e-3 0.01 6e-3 0.016l0.07 0.018c7e-3 2e-3 0.013 7e-3 0.015 0.014s0 0.014-5e-3 0.02l-0.049 0.052c1e-3 5e-3 3e-3 0.011 4e-3 0.017l0.064 0.031c7e-3 3e-3 0.011 9e-3 0.012 0.016s-3e-3 0.014-9e-3 0.018zm-0.585 0.609z" fill="url(#_Linear1)" fill-rule="nonzero"/>
        </g>
        <g id="g20" transform="translate(450.33 483.63)">
            <path id="path18" d="m0 167.33c-1.664-1.42-2.536-2.262-2.536-2.262l142.54-11.677c-116.27-153.39-209.42-31.198-219.34-17.536v31.475z" fill-rule="nonzero"/>
        </g>
        <g id="g24" transform="translate(747.12 477.33)">
            <path id="path22" d="m0 171.97c1.663-1.42 2.536-2.264 2.536-2.264l-136.98-10.023c116.33-159.69 203.87-32.852 213.78-19.19v31.477z" fill-rule="nonzero"/>
        </g>
        <g id="g28" transform="matrix(-1.53e-5 -267.21 -267.21 1.53e-5 809.46 764.23)">
            <path id="path26" d="m1-0.586s-0.232 0.058-0.476 0.421l-0.024 0.101s0.6 0.329-0.076 0.795c0 0 0.084-0.145-0.019-0.534 0 0-0.274 0.179-0.265 0.539 0 0-0.415-0.345 0.184-0.871 0 0 0.215-0.556 0.676-0.601z" fill="url(#_Linear2)" fill-rule="nonzero"/>
        </g>
        <g id="g32" transform="translate(677.39 509.61)">
            <path id="path30" d="m0-92.063s43.486-47.615 86.974 0c0 0 34.17 63.492 0 95.234 0 0-55.912 44.444-86.974 0 0 0-37.275-34.921 0-95.234" fill-rule="nonzero"/>
        </g>
        <g id="g36" transform="translate(727.74 435.21)">
            <path id="path34" d="m0 2e-3c0 18.541-10.93 33.572-24.408 33.572-13.477 0-24.406-15.031-24.406-33.572s10.929-33.574 24.406-33.574c13.478 0 24.408 15.033 24.408 33.574" fill="#fff" fill-rule="nonzero"/>
        </g>
        <g id="g40" transform="translate(483.3 502.98)">
            <path id="path38" d="m0-98.439s74.596-33.028 94.956 40.691c0 0 21.327 85.926-61.259 90.776 0 0-105.31-20.283-33.697-131.47" fill-rule="nonzero"/>
        </g>
        <g id="g44" transform="translate(520.77 436.43)">
            <path id="path42" d="m0 0c0 19.119-11.27 34.627-25.173 34.627-13.898 0-25.171-15.508-25.171-34.627 0-19.124 11.273-34.627 25.171-34.627 13.903 0 25.173 15.503 25.173 34.627" fill="#fff" fill-rule="nonzero"/>
        </g>
        <g id="g48" transform="matrix(-1.53e-5 -239.02 -239.02 1.53e-5 402.16 775.39)">
            <path id="path46" d="m0.367 0.129c-0.731-0.57-0.144-0.84-0.144-0.84 0.036 0.32 0.249 0.547 0.249 0.547 0.049-0.384 0.053-0.606 0.053-0.606 0.678 0.514 0.064 0.931 0.064 0.931 0.038 0.104 0.183 0.211 0.317 0.29l0.094 0.319c-0.624-0.367-0.633-0.641-0.633-0.641z" fill="url(#_Linear3)" fill-rule="nonzero"/>
        </g>
    </g>
    <defs id="defs76"><linearGradient id="_Linear1" x2="1" gradientTransform="matrix(1 0 0 -1 0 -.00065052)" gradientUnits="userSpaceOnUse"><stop id="stop51" stop-color="#f74c00" offset="0"/><stop id="stop53" stop-color="#f74c00" offset=".33"/><stop id="stop55" stop-color="#f49600" offset="1"/></linearGradient><linearGradient id="_Linear2" x2="1" gradientTransform="matrix(1 0 0 -1 0 1.2344e-6)" gradientUnits="userSpaceOnUse"><stop id="stop58" stop-color="#cc3a00" offset="0"/><stop id="stop60" stop-color="#cc3a00" offset=".15"/><stop id="stop62" stop-color="#f74c00" offset=".74"/><stop id="stop64" stop-color="#f74c00" offset="1"/></linearGradient><linearGradient id="_Linear3" x2="1" gradientTransform="scale(1,-1)" gradientUnits="userSpaceOnUse"><stop id="stop67" stop-color="#cc3a00" offset="0"/><stop id="stop69" stop-color="#cc3a00" offset=".15"/><stop id="stop71" stop-color="#f74c00" offset=".74"/><stop id="stop73" stop-color="#f74c00" offset="1"/></linearGradient><linearGradient id="linearGradient6517" x1="609.04" x2="7.6671" y1="-515" y2="-337.34" gradientTransform="matrix(.84091 0 0 .83307 54.015 573.07)" gradientUnits="userSpaceOnUse"><stop id="stop6511" stop-color="#ac5fb3" offset="0"/><stop id="stop6513" stop-color="#fcf8fb" offset="1"/></linearGradient><linearGradient id="linearGradient6541" x1="645.99" x2="15.254" y1="-207.12" y2="-71.186" gradientTransform="matrix(.84091 0 0 .83307 14.108 513.77)" gradientUnits="userSpaceOnUse"><stop id="stop6533" stop-color="#a0bcad" offset="0"/><stop id="stop6535" stop-color="#fcf8fb" offset="1"/></linearGradient></defs>
<path id="path5750" d="m141.21 342.14c-16.307-96.952 51.547-188.69 135.47-231.62 116.94-68.481 258.38-94.697 392.52-74.964 89.557 15.182 174.35 63.054 230.32 134.2 27.473 42.373 49.057 93.199 46.286 144.39" fill="none" stroke="#000" stroke-linejoin="round" stroke-miterlimit="4" stroke-width="58.285"/><path id="path5787" d="m184.9 327.86c74.771-31.816 156.46-43.81 237.45-41.224 131.01-1.802 262.19-6.1458 393.14-2.1398 67.346 5.8065 139.23 24.854 182.97 79.791 18.791 24.973 73.669 58.268 35.584 89.79-43.011 27.605-96.289 4.7827-142.96 0.58335-141.73-35.193-289.23-29.788-434.1-27.261-116.68 5.6691-232.42 24.233-346.71 46.887-55.603-4.0308-35.519-70.696-6.1917-94.882 21.011-24.627 49.659-42.479 80.82-51.543z" fill="none" stroke="#000" stroke-linejoin="miter" stroke-miterlimit="4" stroke-width="32.599"/><path id="path6261" d="m104.42 456.47c-35.345-27.416 19.051-72.9 41.922-91.716 51.61-30.119 111.2-44.882 169.67-55.962 108.05-8.4701 216.79-6.0909 325.14-8.2538 98.328 1.7131 203.13-13.268 294.08 32.933 37.833 22.353 65.216 58.266 93.489 90.979-4.4388 39.159-63.316 23.107-92.855 20.38-72.898-12.283-145.09-30.13-219.37-32.563-167.22-8.3181-335.75-4.04-500.85 25.475-37.269 4.0452-74.131 17.664-111.22 18.727z" fill="url(#linearGradient6541)"/><path id="path6509" d="m168.78 308.99c0-20.869 6.8167-45.866 19.26-70.627 11.041-21.971 23.582-39.068 41.957-57.2 23.582-23.27 49.447-40.137 99.125-64.643 76.787-37.879 161.9-57.166 252.27-57.166 82.957 0 140.68 13.805 199.71 47.766 36.092 20.763 79.17 58.193 95.796 83.237 10.558 15.904 23.48 42.48 29.446 60.561 5.0819 15.402 9.0896 33.987 7.6387 35.424-0.42496 0.42104-3.5986-0.22367-7.0524-1.4327-17.776-6.2224-50.368-12.816-81.106-16.407-30.754-3.5934-421.04-0.97661-476.04 3.1917-54.515 4.1319-107.9 15.906-156.07 34.419-8.6229 3.3144-17.762 6.7082-20.31 7.5418l-4.6321 1.5157z" fill="url(#linearGradient6517)"/></svg>
